assets/img/svg/language.svg

<svg width="24" height="24" viewBox="0 0 24 24" fill="none" xmlns="http://www.w3.org/2000/svg">
<path d="M20.025 18.7711C20.0297 18.7641 20.0367 18.757 20.0414 18.75C21.5766 16.9242 22.5 14.5711 22.5 12C22.5 9.42891 21.5766 7.07578 20.0438 5.25C20.0391 5.24297 20.032 5.23828 20.0273 5.23125C20.0016 5.20078 19.9781 5.17266 19.9523 5.14453C19.943 5.13281 19.9336 5.12344 19.9242 5.11172L19.8281 5.00156L19.8258 4.99922C19.7906 4.95938 19.7531 4.91953 19.718 4.87969L19.7156 4.87734C19.6406 4.79766 19.5656 4.71797 19.4883 4.64062L19.4859 4.63828L19.3734 4.52578L19.3664 4.51875C19.3312 4.48359 19.2961 4.45078 19.2609 4.41797C19.2492 4.40625 19.2375 4.39453 19.2234 4.38281C19.2 4.35938 19.1766 4.33828 19.1531 4.31719C19.1461 4.31016 19.1367 4.30312 19.1297 4.29375C17.2594 2.55937 14.7539 1.5 12 1.5C9.24609 1.5 6.74062 2.55937 4.86797 4.29375C4.86094 4.30078 4.85156 4.30781 4.84453 4.31719C4.82109 4.33828 4.79766 4.36172 4.77422 4.38516C4.7625 4.39688 4.75078 4.40859 4.73672 4.42031C4.70156 4.45313 4.66641 4.48828 4.63125 4.52109L4.62422 4.52812L4.51172 4.64062L4.50937 4.64297C4.43203 4.72031 4.35703 4.8 4.28203 4.87969L4.27969 4.88203C4.24219 4.92188 4.20703 4.96172 4.17188 5.00156L4.16953 5.00391C4.13672 5.03906 4.10391 5.07656 4.07344 5.11406C4.06406 5.12578 4.05469 5.13516 4.04531 5.14688C4.01953 5.175 3.99609 5.20547 3.97031 5.23359C3.96562 5.24063 3.95859 5.24531 3.95391 5.25234C2.42344 7.07578 1.5 9.42891 1.5 12C1.5 14.5711 2.42344 16.9242 3.95625 18.75C3.96094 18.757 3.96797 18.7641 3.97266 18.7711L4.04531 18.8578C4.05469 18.8695 4.06406 18.8789 4.07344 18.8906L4.16953 19.0008C4.16953 19.0031 4.17188 19.0031 4.17188 19.0055C4.20703 19.0453 4.24219 19.0852 4.27969 19.1227L4.28203 19.125C4.35703 19.2047 4.43203 19.2844 4.50703 19.3617L4.50937 19.3641C4.54687 19.4016 4.58203 19.4391 4.61953 19.4742L4.62656 19.4813C4.70391 19.5586 4.78359 19.6336 4.86328 19.7062C6.74062 21.4406 9.24609 22.5 12 22.5C14.7539 22.5 17.2594 21.4406 19.132 19.7062C19.2119 19.6331 19.29 19.558 19.3664 19.4813L19.3734 19.4742C19.4109 19.4367 19.4484 19.4016 19.4836 19.3641L19.4859 19.3617C19.5633 19.2844 19.6383 19.2047 19.7109 19.125L19.7133 19.1227C19.7484 19.0828 19.7859 19.0453 19.8211 19.0055C19.8211 19.0031 19.8234 19.0031 19.8234 19.0008C19.8562 18.9656 19.8891 18.9281 19.9195 18.8906C19.9289 18.8789 19.9383 18.8695 19.9477 18.8578C19.9742 18.8296 19.9999 18.8006 20.025 18.7711ZM20.1211 15.4289C19.7977 16.193 19.3711 16.9008 18.8508 17.543C18.2648 17.0365 17.6241 16.5971 16.9406 16.2328C17.2125 15.1336 17.3813 13.9266 17.4258 12.6562H20.7891C20.7188 13.6148 20.4937 14.5453 20.1211 15.4289ZM20.7891 11.3438H17.4258C17.3813 10.0734 17.2125 8.86641 16.9406 7.76719C17.6273 7.40156 18.2672 6.96094 18.8508 6.45703C19.9818 7.84916 20.6584 9.55485 20.7891 11.3438ZM15.4289 3.87891C16.3594 4.27266 17.2055 4.81641 17.9508 5.50078C17.5178 5.86944 17.0518 6.19739 16.5586 6.48047C16.1906 5.42578 15.7195 4.50938 15.1711 3.77578C15.2578 3.80859 15.3445 3.84375 15.4289 3.87891ZM13.3055 20.2992C13.0898 20.468 12.8742 20.5969 12.6562 20.6836V16.3359C13.5862 16.4008 14.5008 16.6079 15.368 16.95C15.1734 17.5266 14.9484 18.0586 14.6883 18.5391C14.2805 19.2984 13.8023 19.9055 13.3055 20.2992ZM14.6883 5.46094C14.9461 5.94375 15.1734 6.47578 15.368 7.05C14.5008 7.39209 13.5862 7.59918 12.6562 7.66406V3.31875C12.8719 3.40547 13.0898 3.53203 13.3055 3.70312C13.8023 4.09453 14.2805 4.70156 14.6883 5.46094ZM12.6562 15.0211V12.6562H16.1133C16.0758 13.6922 15.9469 14.6977 15.7313 15.6516L15.7242 15.6797C14.7406 15.3067 13.7063 15.0847 12.6562 15.0211ZM12.6562 11.3438V8.97891C13.7297 8.91328 14.7609 8.68594 15.7242 8.32031L15.7313 8.34844C15.9469 9.30234 16.0758 10.3055 16.1133 11.3438H12.6562ZM11.3438 12.6562V15.0211C10.2703 15.0867 9.23906 15.3141 8.27578 15.6797L8.26875 15.6516C8.05312 14.6977 7.92422 13.6945 7.88672 12.6562H11.3438ZM7.88672 11.3438C7.92422 10.3078 8.05312 9.30234 8.26875 8.34844L8.27578 8.32031C9.23906 8.68594 10.268 8.91328 11.3438 8.97891V11.3438H7.88672ZM11.3438 16.3359V20.6813C11.1281 20.5945 10.9102 20.468 10.6945 20.2969C10.1977 19.9055 9.71719 19.2961 9.30938 18.5367C9.05156 18.0539 8.82422 17.5219 8.62969 16.9477C9.50156 16.6055 10.4086 16.4016 11.3438 16.3359ZM11.3438 7.66406C10.4138 7.59918 9.49924 7.39209 8.63203 7.05C8.82656 6.47344 9.05156 5.94141 9.31172 5.46094C9.71953 4.70156 10.1977 4.09219 10.6969 3.70078C10.9125 3.53203 11.1281 3.40313 11.3461 3.31641V7.66406H11.3438ZM8.57109 3.87891C8.65781 3.84375 8.74219 3.80859 8.82891 3.77578C8.28047 4.50938 7.80937 5.42578 7.44141 6.48047C6.94922 6.19922 6.48281 5.87109 6.04922 5.50078C6.79453 4.81641 7.64063 4.27266 8.57109 3.87891ZM3.87891 8.57109C4.20234 7.80703 4.62891 7.09922 5.14922 6.45703C5.73281 6.96094 6.37266 7.40156 7.05938 7.76719C6.7875 8.86641 6.61875 10.0734 6.57422 11.3438H3.21094C3.28125 10.3852 3.50625 9.45469 3.87891 8.57109ZM3.21094 12.6562H6.57422C6.61875 13.9266 6.7875 15.1336 7.05938 16.2328C6.37589 16.5971 5.73521 17.0365 5.14922 17.543C4.01819 16.1508 3.34164 14.4451 3.21094 12.6562ZM8.57109 20.1211C7.64063 19.7273 6.79453 19.1836 6.04922 18.4992C6.48281 18.1289 6.94922 17.8031 7.44141 17.5195C7.80937 18.5742 8.28047 19.4906 8.82891 20.2242C8.74219 20.1914 8.65547 20.1562 8.57109 20.1211ZM15.4289 20.1211C15.3422 20.1562 15.2578 20.1914 15.1711 20.2242C15.7195 19.4906 16.1906 18.5742 16.5586 17.5195C17.0508 17.8008 17.5172 18.1289 17.9508 18.4992C17.2096 19.1807 16.3565 19.7294 15.4289 20.1211Z" fill="white"/>
</svg>

<svg xmlns="http://www.w3.org/2000/svg" width="24" height="24" fill="none"><path fill="#fff" d="M20.025 18.771c.005-.007.012-.014.016-.021A10.449 10.449 0 0 0 22.5 12a10.46 10.46 0 0 0-2.456-6.75l-.017-.019c-.025-.03-.049-.058-.075-.086l-.028-.033-.096-.11-.002-.003-.108-.12-.002-.002c-.075-.08-.15-.159-.228-.236l-.002-.003-.113-.112-.007-.007a4.176 4.176 0 0 0-.105-.101c-.012-.012-.023-.023-.038-.035a1.733 1.733 0 0 0-.07-.066c-.007-.007-.016-.014-.023-.023A10.45 10.45 0 0 0 12 1.5a10.46 10.46 0 0 0-7.132 2.794c-.007.007-.016.014-.023.023-.024.021-.047.045-.07.068a.55.55 0 0 1-.038.035l-.106.101-.007.007-.112.113-.003.002c-.077.077-.152.157-.227.237l-.002.002c-.038.04-.073.08-.108.12l-.002.002a2.154 2.154 0 0 0-.097.11l-.028.033-.075.087c-.004.007-.011.011-.016.018A10.46 10.46 0 0 0 1.5 12c0 2.571.923 4.924 2.456 6.75l.017.021.072.087c.01.011.02.02.028.033l.097.11c0 .002.002.002.002.005.035.04.07.08.108.117l.002.002c.075.08.15.16.225.237l.002.002c.038.038.073.075.11.11l.008.007A10.48 10.48 0 0 0 12 22.5a10.46 10.46 0 0 0 7.366-3.019l.007-.007c.038-.037.075-.072.11-.11l.003-.002c.077-.078.152-.157.225-.237l.002-.002c.035-.04.073-.078.108-.117 0-.003.002-.003.002-.005.033-.035.066-.073.096-.11.01-.012.02-.021.029-.033.026-.028.052-.057.077-.087Zm.096-3.342a8.8 8.8 0 0 1-1.27 2.114 10.406 10.406 0 0 0-1.91-1.31c.271-1.1.44-2.306.485-3.577h3.363a8.764 8.764 0 0 1-.668 2.773Zm.668-4.085h-3.363a17.518 17.518 0 0 0-.485-3.577 10.41 10.41 0 0 0 1.91-1.31 8.763 8.763 0 0 1 1.938 4.887Zm-5.36-7.465A8.76 8.76 0 0 1 17.95 5.5a9.252 9.252 0 0 1-1.392.98c-.368-1.055-.84-1.972-1.388-2.705.087.033.174.068.258.103Zm-2.123 16.42a2.652 2.652 0 0 1-.65.385v-4.348a9.12 9.12 0 0 1 2.712.614 10.17 10.17 0 0 1-.68 1.59c-.408.758-.886 1.366-1.383 1.76Zm1.382-14.838c.258.483.485 1.015.68 1.589a9.12 9.12 0 0 1-2.712.614V3.32c.216.086.434.213.65.384.496.392.975.999 1.382 1.758Zm-2.032 9.56v-2.365h3.457a16.28 16.28 0 0 1-.382 2.996l-.007.028a10.43 10.43 0 0 0-3.068-.659Zm0-3.677V8.979a10.43 10.43 0 0 0 3.068-.659l.007.028c.216.954.345 1.957.382 2.996h-3.457Zm-1.312 1.312v2.365a10.43 10.43 0 0 0-3.068.659l-.007-.028a16.253 16.253 0 0 1-.382-2.996h3.457Zm-3.457-1.312c.037-1.036.166-2.042.382-2.996l.007-.028c.963.366 1.992.593 3.068.659v2.365H7.887Zm3.457 4.992v4.345a2.625 2.625 0 0 1-.65-.384c-.496-.392-.977-1-1.385-1.76a10.587 10.587 0 0 1-.68-1.59 9.15 9.15 0 0 1 2.715-.611Zm0-8.672a9.12 9.12 0 0 1-2.712-.614c.195-.577.42-1.109.68-1.59.408-.758.886-1.368 1.385-1.76.216-.168.431-.297.65-.384v4.348h-.003ZM8.57 3.88c.087-.035.171-.07.258-.103-.549.733-1.02 1.65-1.388 2.704A9.085 9.085 0 0 1 6.05 5.5 8.761 8.761 0 0 1 8.571 3.88ZM3.88 8.57a8.801 8.801 0 0 1 1.27-2.114c.584.504 1.224.945 1.91 1.31-.272 1.1-.44 2.306-.485 3.577H3.211c.07-.959.295-1.89.668-2.773Zm-.668 4.085h3.363c.045 1.27.213 2.478.485 3.577-.683.364-1.324.803-1.91 1.31a8.763 8.763 0 0 1-1.938-4.887Zm5.36 7.465A8.762 8.762 0 0 1 6.05 18.5c.434-.37.9-.696 1.392-.98.368 1.055.84 1.972 1.388 2.705a8.555 8.555 0 0 1-.258-.103Zm6.858 0c-.087.035-.171.07-.258.103.549-.733 1.02-1.65 1.388-2.704.492.28.958.609 1.392.98a8.762 8.762 0 0 1-2.522 1.621Z"/></svg>
